X: 12
T: Inventio 12
C: Johann Sebastian Bach
%%abc-version 2.0
%%abcx-abcm2ps-target-version 5.9.1 (29 Sep 2008)
%%abc-creator hum2abc beta
%%abcx-conversion-date 2021/01/28 10:10:55
%%abc-copyright Copyright 1994, David Huron
%%abc-edited-by David Huron
%%abcx-initial-encoding-date 1986 November
%%gracespace 0 6 6
%%humdrum-veritas 3804823467
%%humdrum-veritas-data 3366109683
%%linebreak <none>
%%barnumbers 0
L: 1/16
M: 12/8
N: Derived from inven12.krn
Q: 3/8=72
%%staves {1 2}
V: 1 clef=treble
V: 2 clef=bass
K: A
[V:1] !uppermordent!A4A2!uppermordent!A4A2~B12- | 
[V:2] A, B, C B, A, G, F, G, A, G, F, E, D, F, A, F, D, F, B,, D, F, D, B,, D, | 
[V:1] B A G A B c d c d f e d c A c e a f ^d B d f a f | 
[V:2] G,,2 B,,2 G,,2 E,,2 F,,2 G,,2A,,4z2z6 | 
[V:1] g a g f e ^d c d e d c B A c e c A c F A c A F A | 
[V:2] !uppermordent!E,4E,2!uppermordent!E,4E,2~F,12- | 
[V:1] ^D2 F2 D2 B, D F A G F E G B e B GE4z2 | 
[V:2] F, E, ^D, E, F, G, A, G, A, C B, A, G, E, G, B, E B, G, E, G, B, =D B, | 
[V:1] !uppermordent!e4e2!uppermordent!e4e2 e a e c A c e a e c A c | 
[V:2] C D E D C B, A, B, C B, A, G, F,2 F2 C2 A,2 F,2 A,2 | 
[V:1] d4d2d4d2 d b g d B d g b g d B d | 
[V:2] B, C D C B, A, G, A, B, A, G, F, E,2 B,,2 G,,2E,,4z2 | 
[V:1] c2 z2 z2 z D F A d c B2 z2 z2 z C ^E G c B | 
[V:2] z A, C E A G F2 z2 z2 z G, B, ^D G F ^E2 z2 z2 | 
[V:1] A2 z2 z2 z B, D F B A G F B A G F ^E G c B A G | 
[V:2] z F, A, C F E D2 z2 z2 z B,, D, F, B, A, G, C, ^E, G, C B, | 
[V:1] F2 f2 F2 F2 C2 F2~G12- | 
[V:2] A, B, A, G, F, E, D, E, F, E, D, C, B,, D, F, D, B,, D, G,, B,, D, B,, G,, B,, | 
[V:1] G F ^E F G A B A B =d c B A F A c f ^d ^B G B d f d | 
[V:2] ^E,,2 G,,2 E,,2 C,,2 ^D,,2 E,,2 F,,2 F,2 ^D,2 G,2 F,2 G,2 | 
[V:1] e f e ^d c B A B c B A G F A c A F A ^D F A F D F | 
[V:2] C,4C,2C,4C,2^D,12- | 
[V:1] ^B,2 ^D2 F2 A2 G2 ^B2 c e g e c e g e c e g e | 
[V:2] D, C, ^B,, C, ^D, E, F, E, F, A, G, F, E, C, E, G, C G, E, C, E, G, C B, | 
[V:1] c e f e c e f e c e f ^A B d f d B d f d B d f d | 
[V:2] ^A, F, A, C F C A, F, A, C F E D B,, D, F, B, F, D, B,, D, F, B, =A, | 
[V:1] B d e d B d e d B d e G!uppermordent!A4A2!uppermordent!A4A2 | 
[V:2] G, E, G, B, E B, G, E, G, B, E D C D E D C B, A, B, C B, A, G, | 
[V:1] A ^d B A F A B d B A F A!uppermordent!=G4G2!uppermordent!G4G2 | 
[V:2] F,2 A,2 ^D2- D2 C2 B,2 E F =G F E =D C D E D C B, | 
[V:1] =G e c G E G c e c G E G F2 z2 z2 z G, B, D ^G F | 
[V:2] A,2 E,2 C,2A,,4z2 z D, F, A, D C B,2 z2 z2 | 
[V:1] E2 z2 z2 z F, A, C F E D2 z2 z2 z E, G, B, E D | 
[V:2] z C, E, G, C B, A,2 z2 z2 z B,, D, F, B, A, G,2 z2 z2 | 
[V:1] C A, C E A E c A c e a f d f a f d f B d f d B d | 
[V:2] !uppermordent!A,,4A,,2!uppermordent!A,,4A,,2~B,,12- | 
[V:1] G2 B2 d2 f2 e2 B2 f2 e2 A2 e2 d2 G2 | 
[V:2] B,, A,, G,, A,, B,, C, D, C, D, F, E, D, C, B,, C, E, D, C, B,, A,, B,, D, C, B,, | 
[V:1] d2 c2 E2 F G A B c d G E G B e B g e b g e g | 
[V:2] A,, G,, A,, B,, C, A,,!uppermordent!D,4D,2~D,12 | 
[V:1] a2 e2 c2 A d c B e2- e f c2 B A!fermata!A6 |]  
[V:2] C, D, C, B,, A,, G,, F,, F, E, D, C, B,, C, D, E,2 E,,2!fermata!A,,6 |]  


